X: 20547
T: John Meskell's
R: hornpipe
M: 4/4
K: Gmajor
|:DG G2 GEFG|ABAG FDGA|B3G A3F|GBAG FGEF|
DG G2 GEFG|ABAG FDGA|B2 dB cAFG|AGGF G4:|
|:B3A GAAG|AD D2 AD D2|B3A GABc|dBcA BGAF|
B3A GAAG|AD D2 ADfg|(3agf (3gfe fdcA|FGAF G4:|

